X:1
T:Greenview Park
M:6/8
L:1/8
Q:80
C:James E. Stack
S:March
K:HP
|: {g}B/2d|
{gef}e2{A}e{g}e3/2d/2{e}B|
{a}g3/2e/2d{gef}e2a|  !
{f}g3/2f/2{g}e{Gdc}d3/2{g}B/2d|
{g}e/2g3/2f{gef}e3/2{g}B/2d|
{gef}e2{A}e{g}e3/2d/2{e}B|  !
{a}g3/2e/2d{gef}e2B|
{Gdc}d3/2{g}B/2d{g}e/2g3/2d|
{gef}e3{A}e3/2:| |:  !
{g}B/2d|
{g}e3/2g/2{a}f{gef}e2{AGAG}A|
{a}g3/2e/2d{gef}e2a|  !
{f}g3/2{a}f/2g{Gdc}d3/2{g}B/2d|
{g}e/2g3/2f{gef}e2{AGAG}A|
{g}e3/2g/2{a}f{gef}e2{AGAG}A|  !
{a}g3/2e/2d{gef}e2B|
{Gdc}d3/2{g}B/2d{g}e/2g3/2d|
{gef}e3{A}e3/2:| |:  !
g/2{a}f|
{gef}e3/2d/2{G}de/2{g}A3/2{GAG}A|
{g}e/2g3/2d{g}e3/2g/2{f}g|  !
{ade}d3/2B/2{G}Bd/2{e}G3/2{d}B|
{g}e/2g3/2d{g}B2{Gdc}d|
{gef}e3/2d/2{G}de/2{g}A3/2{GAG}A|  !
{a}g3/2e/2d{g}B2{GdG}e|
{Gdc}d3/2{g}B/2d{g}e/2g3/2d|
{gef}e3{A}e3/2:|  !
{g}B/2d|
{g}e3/2a/2g{ef}e3/2{g}B/2d|
{g}e/2a3/2g{aef}e2B|  !
{Gdc}d3/2e/2d{gde}d3/2B/2G|
{Gdc}d3/2f/2d{g}d/2g3/2f|
{g}e3/2a/2g{ef}e3/2{g}B/2d|  !
{g}e/2a3/2g{aef}e2B|
{Gdc}d3/2{g}B/2d{g}e/2g3/2d|
{gef}e3{A}e3/2:|  !

